X:107
T: Lochaber
N: O'Farrell's Pocket Companion v.2 (Sky ed. p.59-60)
N: "Scotch"
M: 3/4
L: 1/8
R: waltz
Q: 120 % "slow"
K: G
G>A|B2 B2 Bc/d/|B3 ABd|e2 A2 A>B|A4 G>A|
B2 cBAG|D3 EGA|B2 G2 G>A|G4 :|
G2|B>c d2 d2|d>edc {c}BA|G2 g2 fe/f/|g4 G2|
B>c d2 d>g|edcB {B}AG|G2 g2 g>a|{a}g4 d>e|
=fefagf|e2 d2 eg|a2 A2 A>B|A4 G>A|BdcBAG|
D>E DEGA|B2 G2 AG/A/| G4 :|
